;FLAVOR:Marlin
;TIME:11395
;Filament used: 13.4644m
;Layer height: 0.15
;MINX:2.722
;MINY:1.784
;MINZ:0.2
;MAXX:80.531
;MAXY:65.021
;MAXZ:106.25
;MKSPREVIEWPROCESSED
; Postprocessed by [MKS WiFi plugin](https://github.com/Jeredian/mks-wifi-plugin)
; simage=0
; gimage=0
;LINEARADVANCEPROCESSED
;Generated with Cura_SteamEngine 4.13.0
M140 S70
M105
M190 S70
M104 S235
M105
M109 S235
M82 ;absolute extrusion mode
M220 S100 ;reset feedrate
M221 S100 ;reset flowrate
G90 ;use absolute coordinates
M82 ;absolute extrusion mode
G28 ;home
G1 Z2 F1500 ;raise z
G92 E0 ;reset extruder

;G1 X75 Y5 F5000 ;start position
;G1 Z0.28 F1500 ;lower z
G1 E4 F500 ;prime the filament
;G1 X180 E10 F500 ;1st line
;G1 Y5.4 F5000
;G1 X75 E20 F500 ;2nd line
;G1 Z2 F1500 ;raise z
G92 E0 ;reset extruder
M900 K0.15
M900 W0.4 H0.15 D1.75
;end of start g-code
G92 E0
G92 E0
G1 F1680 E-3.75
;LAYER_COUNT:710
M900 K0.150000 T0 ;added by LinearAdvanceSettingPlugin
;LAYER:0
M107
M204 S3000
M205 X15 Y15
;MESH:fox.stl
G0 F6900 X51.03 Y25.503 Z0.2
M204 S1250
;TYPE:WALL-INNER
G1 F1680 E0
G1 F1380 X57.811 Y18.785 E0.31748
G1 X58.83 Y18.708 E0.35147
G1 X60.79 Y16.871 E0.44081
G1 X63.065 Y17.181 E0.51718
G1 X64.779 Y19.101 E0.60278
G1 X67.319 Y25.527 E0.8326
G1 X67.159 Y25.94 E0.84734
G1 X67.841 Y26.458 E0.87582
G1 X72.636 Y30.948 E1.09431
G1 X71.586 Y36.406 E1.27917
G1 X71.153 Y37.307 E1.31242
G1 X58.638 Y39.787 E1.73676
G1 X56.326 Y42.526 E1.85598
G1 X56.159 Y49.969 E2.10359
G1 X55.726 Y52.813 E2.19928
G1 X52.545 Y53.522 E2.30767
G1 X41.722 Y56.353 E2.67976
G1 X38.486 Y58.192 E2.80355
G1 X26.807 Y56.626 E3.19548
G1 X24.834 Y56.482 E3.26127
G1 X24.539 Y55.84 E3.28477
G1 X21.922 Y54.82 E3.37819
G1 X12.056 Y48.154 E3.77422
G1 X8.802 Y44.995 E3.92506
G1 X6.973 Y38.879 E4.13738
G1 X5.996 Y34.479 E4.28729
G1 X9.907 Y25.228 E4.62134
G1 X11.195 Y23.227 E4.70049
G1 X11.39 Y21.61 E4.75466
G1 X12.114 Y20.266 E4.80544
G1 X18.777 Y15.587 E5.07623
G1 X25.435 Y14.074 E5.30333
G1 X33.291 Y12.683 E5.56868
G1 X38.325 Y12.129 E5.73712
G1 X39.712 Y13.462 E5.80111
G1 X49.045 Y22.463 E6.23237
G1 X51.03 Y25.503 E6.35312
M204 S3000
G0 F6900 X51.097 Y24.874
M204 S1250
G1 F1380 X57.634 Y18.397 E6.65919
G1 X58.659 Y18.32 E6.69338
G1 X60.655 Y16.449 E6.78438
G1 X63.265 Y16.805 E6.87199
G1 X65.125 Y18.889 E6.96489
G1 X67.749 Y25.525 E7.20224
G1 X67.641 Y25.804 E7.21219
G1 X68.094 Y26.148 E7.23111
G1 X73.071 Y30.807 E7.45785
G1 X71.969 Y36.533 E7.6518
G1 X71.428 Y37.66 E7.69338
G1 X58.853 Y40.152 E8.11976
G1 X56.723 Y42.676 E8.2296
G1 X56.559 Y49.999 E8.47323
G1 X56.08 Y53.143 E8.579
G1 X52.639 Y53.911 E8.69627
G1 X41.874 Y56.727 E9.06636
G1 X38.568 Y58.606 E9.19284
G1 X26.766 Y57.024 E9.58889
G1 X24.569 Y56.864 E9.66215
G1 X24.243 Y56.154 E9.68814
G1 X21.737 Y55.178 E9.77758
G1 X11.8 Y48.463 E10.17648
G1 X8.449 Y45.21 E10.33181
G1 X6.583 Y38.971 E10.5484
G1 X5.578 Y34.442 E10.7027
G1 X9.553 Y25.039 E11.04224
G1 X10.809 Y23.088 E11.11942
G1 X11.002 Y21.487 E11.17305
G1 X11.806 Y19.993 E11.22948
G1 X18.612 Y15.214 E11.50608
G1 X25.359 Y13.681 E11.73621
G1 X33.238 Y12.286 E12.00234
G1 X38.466 Y11.711 E12.17727
G1 X39.989 Y13.174 E12.24751
G1 X49.357 Y22.209 E12.6804
G1 X51.097 Y24.874 E12.78625
M204 S3000
G0 F6900 X51.164 Y24.245
M204 S1250
;TYPE:WALL-OUTER
G1 F1380 X57.457 Y18.009 E13.08092
G1 X58.488 Y17.932 E13.11531
G1 X60.519 Y16.027 E13.20792
G1 X63.465 Y16.429 E13.30681
G1 X65.471 Y18.677 E13.40702
G1 X68.179 Y25.524 E13.65192
G1 X68.123 Y25.668 E13.65706
G1 X68.353 Y25.843 E13.66667
G1 X73.506 Y30.666 E13.90142
G1 X72.352 Y36.66 E14.10444
G1 X71.702 Y38.013 E14.15437
G1 X59.068 Y40.517 E14.58275
G1 X57.12 Y42.826 E14.68323
G1 X56.959 Y50.029 E14.92286
G1 X56.434 Y53.474 E15.03876
G1 X52.733 Y54.3 E15.16489
G1 X42.026 Y57.101 E15.53299
G1 X38.65 Y59.02 E15.66215
G1 X26.725 Y57.422 E16.06232
G1 X24.305 Y57.246 E16.14302
G1 X23.947 Y56.468 E16.17151
G1 X21.552 Y55.536 E16.25698
G1 X11.544 Y48.772 E16.65875
G1 X8.096 Y45.425 E16.81857
G1 X6.193 Y39.063 E17.03944
G1 X5.16 Y34.405 E17.19813
G1 X9.199 Y24.85 E17.54315
G1 X10.423 Y22.949 E17.61835
G1 X10.614 Y21.364 E17.67145
G1 X11.498 Y19.721 E17.73351
G1 X18.447 Y14.841 E18.01593
G1 X25.283 Y13.288 E18.24909
G1 X33.185 Y11.889 E18.516
G1 X38.608 Y11.293 E18.69745
G1 X40.266 Y12.885 E18.7739
G1 X49.667 Y21.952 E19.20831
G1 X51.164 Y24.245 E19.29939
M204 S3000
G0 F6900 X50.913 Y24.408
G0 X51.005 Y25.734
G0 X50.965 Y26.117
M204 S1250
;TYPE:SKIN
G1 F1380 X57.985 Y19.162 E19.62807
G1 X58.996 Y19.086 E19.66179
G1 X60.922 Y17.282 E19.74956
G1 X62.87 Y17.548 E19.81495
G1 X64.44 Y19.307 E19.89337
G1 X66.9 Y25.53 E20.11593
G1 X66.689 Y26.073 E20.13531
G1 X67.583 Y26.75 E20.17261
G1 X72.212 Y31.086 E20.38356
G1 X71.212 Y36.285 E20.55965
G1 X70.886 Y36.962 E20.58464
G1 X58.428 Y39.431 E21.00706
G1 X55.94 Y42.38 E21.13539
G1 X55.769 Y49.932 E21.38663
G1 X55.38 Y52.491 E21.47272
G1 X52.453 Y53.143 E21.57246
G1 X41.574 Y55.988 E21.94647
G1 X38.406 Y57.788 E22.06765
G1 X26.848 Y56.238 E22.45552
G1 X25.093 Y56.11 E22.51404
G1 X24.828 Y55.534 E22.53513
G1 X22.103 Y54.473 E22.63239
G1 X12.302 Y47.851 E23.02581
G1 X9.147 Y44.787 E23.17208
G1 X7.347 Y38.768 E23.38104
G1 X6.403 Y34.517 E23.52587
G1 X10.253 Y25.412 E23.85466
G1 X11.571 Y23.363 E23.93569
G1 X11.77 Y21.727 E23.99051
G1 X12.413 Y20.532 E24.03564
G1 X18.939 Y15.95 E24.30086
G1 X25.503 Y14.458 E24.52475
G1 X33.341 Y13.071 E24.78949
G1 X38.186 Y12.537 E24.95161
G1 X39.441 Y13.743 E25.0095
G1 X48.745 Y22.717 E25.43944
G1 X50.965 Y26.117 E25.5745
M204 S3000
G0 F6900 X51.005 Y25.734
G0 X57.888 Y18.952
G0 X60.849 Y17.054
G0 X62.383 Y17.199
G0 X62.324 Y17.635
M204 S1250
G1 F1380 X64.445 Y19.755 E25.67424
M204 S3000
G0 F6900 X64.855 Y19.594
G0 X65.225 Y20.53
G0 X64.814 Y20.691
M204 S1250
G1 F1380 X61.668 Y17.545 E25.82222
M204 S3000
G0 F6900 X61.014 Y17.456
M204 S1250
G1 F1380 X65.183 Y21.626 E26.01834
M204 S3000
G0 F6900 X65.595 Y21.465
G0 X65.965 Y22.4
G0 X65.553 Y22.561
M204 S1250
G1 F1380 X60.7 Y17.708 E26.24661
M204 S3000
G0 F6900 X60.408 Y17.982
M204 S1250
G1 F1380 X65.922 Y23.496 E26.50597
M204 S3000
G0 F6900 X66.334 Y23.334
G0 X66.704 Y24.269
G0 X66.291 Y24.431
M204 S1250
G1 F1380 X60.116 Y18.256 E26.79642
M204 S3000
G0 F6900 X59.824 Y18.529
M204 S1250
G1 F1380 X66.661 Y25.366 E27.11801
M204 S3000
G0 F6900 X66.596 Y25.867
M204 S1250
G1 F1380 X59.532 Y18.803 E27.45028
M204 S3000
G0 F6900 X59.239 Y19.076
M204 S1250
G1 F1380 X71.919 Y31.756 E28.04671
M204 S3000
G0 F6900 X71.828 Y32.23
M204 S1250
G1 F1380 X58.855 Y19.257 E28.65692
M204 S3000
G0 F6900 X58.328 Y19.296
M204 S1250
G1 F1380 X71.737 Y32.705 E29.28764
M204 S3000
G0 F6900 X71.646 Y33.179
M204 S1250
G1 F1380 X57.919 Y19.452 E29.93331
M204 S3000
G0 F6900 X57.634 Y19.733
M204 S1250
G1 F1380 X71.554 Y33.654 E30.58809
M204 S3000
G0 F6900 X71.463 Y34.127
M204 S1250
G1 F1380 X57.35 Y20.015 E31.2519
M204 S3000
G0 F6900 X57.066 Y20.296
M204 S1250
G1 F1380 X71.371 Y34.602 E31.92479
M204 S3000
G0 F6900 X71.28 Y35.076
M204 S1250
G1 F1380 X56.782 Y20.578 E32.60673
M204 S3000
G0 F6900 X56.498 Y20.86
M204 S1250
G1 F1380 X71.189 Y35.551 E33.29775
M204 S3000
G0 F6900 X71.098 Y36.025
M204 S1250
G1 F1380 X56.214 Y21.141 E33.99785
M204 S3000
G0 F6900 X55.93 Y21.423
M204 S1250
G1 F1380 X70.955 Y36.448 E34.70458
M204 S3000
G0 F6900 X70.763 Y36.821
M204 S1250
G1 F1380 X55.645 Y21.704 E35.41566
M204 S3000
G0 F6900 X55.361 Y21.986
M204 S1250
G1 F1380 X70.29 Y36.915 E36.11787
M204 S3000
G0 F6900 X69.818 Y37.008
M204 S1250
G1 F1380 X55.077 Y22.268 E36.81122
M204 S3000
G0 F6900 X54.793 Y22.549
M204 S1250
G1 F1380 X69.346 Y37.102 E37.49575
M204 S3000
G0 F6900 X68.874 Y37.195
M204 S1250
G1 F1380 X54.509 Y22.831 E38.17141
M204 S3000
G0 F6900 X54.225 Y23.112
M204 S1250
G1 F1380 X68.401 Y37.289 E38.83823
M204 S3000
G0 F6900 X67.93 Y37.383
M204 S1250
G1 F1380 X53.94 Y23.393 E39.49628
M204 S3000
G0 F6900 X53.657 Y23.676
M204 S1250
G1 F1380 X67.457 Y37.476 E40.14539
M204 S3000
G0 F6900 X66.985 Y37.569
M204 S1250
G1 F1380 X53.373 Y23.957 E40.78565
M204 S3000
G0 F6900 X53.088 Y24.238
M204 S1250
G1 F1380 X66.513 Y37.664 E41.41715
M204 S3000
G0 F6900 X66.041 Y37.757
M204 S1250
G1 F1380 X52.804 Y24.52 E42.03978
M204 S3000
G0 F6900 X52.521 Y24.802
M204 S1250
G1 F1380 X65.569 Y37.85 E42.65351
M204 S3000
G0 F6900 X65.097 Y37.944
M204 S1250
G1 F1380 X52.236 Y25.083 E43.25845
M204 S3000
G0 F6900 X51.952 Y25.365
M204 S1250
G1 F1380 X64.625 Y38.038 E43.85455
M204 S3000
G0 F6900 X64.152 Y38.131
M204 S1250
G1 F1380 X51.668 Y25.646 E44.44179
M204 S3000
G0 F6900 X51.384 Y25.928
M204 S1250
G1 F1380 X63.681 Y38.225 E45.0202
M204 S3000
G0 F6900 X63.208 Y38.318
M204 S1250
G1 F1380 X51.1 Y26.21 E45.58972
M204 S3000
G0 F6900 X51.005 Y25.734
G0 X50.701 Y25.202
G0 X50.332 Y25.442
M204 S1250
G1 F1380 X37.647 Y12.757 E46.18639
M204 S3000
G0 F6900 X37.137 Y12.813
M204 S1250
G1 F1380 X62.736 Y38.412 E47.39048
M204 S3000
G0 F6900 X62.264 Y38.506
M204 S1250
G1 F1380 X36.628 Y12.87 E48.59632
M204 S3000
G0 F6900 X36.119 Y12.925
M204 S1250
G1 F1380 X61.792 Y38.599 E49.80393
M204 S3000
G0 F6900 X61.32 Y38.692
M204 S1250
G1 F1380 X35.609 Y12.982 E51.01327
M204 S3000
G0 F6900 X35.1 Y13.038
M204 S1250
G1 F1380 X60.848 Y38.786 E52.22438
M204 S3000
G0 F6900 X60.376 Y38.88
M204 S1250
G1 F1380 X34.59 Y13.094 E53.43727
M204 S3000
G0 F6900 X34.081 Y13.15
M204 S1250
G1 F1380 X59.903 Y38.973 E54.65188
M204 S3000
G0 F6900 X59.432 Y39.067
M204 S1250
G1 F1380 X33.572 Y13.207 E55.86826
M204 S3000
G0 F6900 X33.079 Y13.28
M204 S1250
G1 F1380 X58.959 Y39.16 E57.08557
M204 S3000
G0 F6900 X58.487 Y39.254
M204 S1250
G1 F1380 X32.598 Y13.365 E58.30331
M204 S3000
G0 F6900 X32.118 Y13.45
M204 S1250
G1 F1380 X58.163 Y39.496 E59.52841
M204 S3000
G0 F6900 X57.904 Y39.803
M204 S1250
G1 F1380 X31.637 Y13.535 E60.76396
M204 S3000
G0 F6900 X31.156 Y13.62
M204 S1250
G1 F1380 X57.646 Y40.109 E62.00994
M204 S3000
G0 F6900 X57.387 Y40.416
M204 S1250
G1 F1380 X30.676 Y13.705 E63.26634
M204 S3000
G0 F6900 X30.195 Y13.79
M204 S1250
G1 F1380 X57.128 Y40.723 E64.53319
M204 S3000
G0 F6900 X56.869 Y41.03
M204 S1250
G1 F1380 X29.714 Y13.875 E65.81048
M204 S3000
G0 F6900 X29.233 Y13.96
M204 S1250
G1 F1380 X56.61 Y41.337 E67.09821
M204 S3000
G0 F6900 X56.352 Y41.644
M204 S1250
G1 F1380 X28.753 Y14.045 E68.39638
M204 S3000
G0 F6900 X28.272 Y14.13
M204 S1250
G1 F1380 X56.093 Y41.951 E69.70499
M204 S3000
G0 F6900 X55.835 Y42.258
M204 S1250
G1 F1380 X27.792 Y14.215 E71.02405
M204 S3000
G0 F6900 X27.311 Y14.301
M204 S1250
G1 F1380 X55.771 Y42.76 E72.3627
M204 S3000
G0 F6900 X55.758 Y43.313
M204 S1250
G1 F1380 X26.831 Y14.386 E73.72334
M204 S3000
G0 F6900 X26.35 Y14.47
M204 S1250
G1 F1380 X55.746 Y43.867 E75.10606
M204 S3000
G0 F6900 X55.734 Y44.42
M204 S1250
G1 F1380 X25.869 Y14.555 E76.51082
M204 S3000
G0 F6900 X25.395 Y14.647
M204 S1250
G1 F1380 X55.721 Y44.973 E77.93726
M204 S3000
G0 F6900 X55.708 Y45.526
M204 S1250
G1 F1380 X24.933 Y14.751 E79.38482
M204 S3000
G0 F6900 X24.472 Y14.856
M204 S1250
G1 F1380 X55.695 Y46.079 E80.85345
M204 S3000
G0 F6900 X55.683 Y46.632
M204 S1250
G1 F1380 X24.011 Y14.96 E82.34321
M204 S3000
G0 F6900 X23.55 Y15.065
M204 S1250
G1 F1380 X55.671 Y47.185 E83.85406
M204 S3000
G0 F6900 X55.658 Y47.738
M204 S1250
G1 F1380 X23.09 Y15.17 E85.38596
M204 S3000
G0 F6900 X22.629 Y15.275
M204 S1250
G1 F1380 X55.645 Y48.291 E86.93893
M204 S3000
G0 F6900 X55.633 Y48.844
M204 S1250
G1 F1380 X22.168 Y15.38 E88.51299
M204 S3000
G0 F6900 X21.707 Y15.484
M204 S1250
G1 F1380 X55.62 Y49.397 E90.10816
M204 S3000
G0 F6900 X55.604 Y49.947
M204 S1250
G1 F1380 X21.246 Y15.589 E91.72425
M204 S3000
G0 F6900 X20.785 Y15.694
M204 S1250
G1 F1380 X55.529 Y50.437 E93.35848
M204 S3000
G0 F6900 X55.454 Y50.929
M204 S1250
G1 F1380 X20.324 Y15.798 E95.01091
M204 S3000
G0 F6900 X19.864 Y15.904
M204 S1250
G1 F1380 X55.379 Y51.42 E96.68145
M204 S3000
G0 F6900 X55.305 Y51.911
M204 S1250
G1 F1380 X19.403 Y16.008 E98.3702
M204 S3000
G0 F6900 X18.959 Y16.131
M204 S1250
G1 F1380 X55.196 Y52.367 E100.07465
M204 S3000
G0 F6900 X54.733 Y52.47
M204 S1250
G1 F1380 X18.627 Y16.364 E101.77297
M204 S3000
G0 F6900 X18.294 Y16.597
M204 S1250
G1 F1380 X54.271 Y52.574 E103.46521
M204 S3000
G0 F6900 X53.807 Y52.676
M204 S1250
G1 F1380 X17.962 Y16.831 E105.15125
M204 S3000
G0 F6900 X17.63 Y17.064
M204 S1250
G1 F1380 X53.345 Y52.779 E106.83118
M204 S3000
G0 F6900 X52.882 Y52.882
M204 S1250
G1 F1380 X17.297 Y17.297 E108.50499
M204 S3000
G0 F6900 X16.965 Y17.531
M204 S1250
G1 F1380 X52.419 Y52.985 E110.17263
M204 S3000
G0 F6900 X51.971 Y53.103
M204 S1250
G1 F1380 X16.633 Y17.764 E111.83485
M204 S3000
G0 F6900 X16.3 Y17.997
M204 S1250
G1 F1380 X51.523 Y53.22 E113.49163
M204 S3000
G0 F6900 X51.074 Y53.337
M204 S1250
G1 F1380 X15.968 Y18.231 E115.14291
M204 S3000
G0 F6900 X15.636 Y18.464
M204 S1250
G1 F1380 X50.626 Y53.454 E116.78873
M204 S3000
G0 F6900 X50.177 Y53.571
M204 S1250
G1 F1380 X15.303 Y18.698 E118.42907
M204 S3000
G0 F6900 X14.971 Y18.931
M204 S1250
G1 F1380 X49.729 Y53.689 E120.06398
M204 S3000
G0 F6900 X49.281 Y53.806
M204 S1250
G1 F1380 X14.639 Y19.164 E121.69344
M204 S3000
G0 F6900 X14.306 Y19.398
M204 S1250
G1 F1380 X48.832 Y53.923 E123.31741
M204 S3000
G0 F6900 X48.384 Y54.041
M204 S1250
G1 F1380 X13.974 Y19.631 E124.93595
M204 S3000
G0 F6900 X13.642 Y19.864
M204 S1250
G1 F1380 X47.935 Y54.158 E126.54901
M204 S3000
G0 F6900 X47.487 Y54.275
M204 S1250
G1 F1380 X13.309 Y20.098 E128.15662
M204 S3000
G0 F6900 X12.977 Y20.331
M204 S1250
G1 F1380 X47.038 Y54.392 E129.75874
M204 S3000
G0 F6900 X46.59 Y54.51
M204 S1250
G1 F1380 X12.645 Y20.564 E131.35543
M204 S3000
G0 F6900 X12.401 Y20.887
M204 S1250
G1 F1380 X46.142 Y54.627 E132.94248
M204 S3000
G0 F6900 X45.693 Y54.744
M204 S1250
G1 F1380 X12.203 Y21.254 E134.51775
M204 S3000
G0 F6900 X12.006 Y21.623
M204 S1250
G1 F1380 X45.245 Y54.862 E136.08121
M204 S3000
G0 F6900 X44.797 Y54.979
M204 S1250
G1 F1380 X11.888 Y22.07 E137.62915
M204 S3000
G0 F6900 X11.827 Y22.575
M204 S1250
G1 F1380 X44.348 Y55.096 E139.15884
M204 S3000
G0 F6900 X43.9 Y55.213
M204 S1250
G1 F1380 X11.766 Y23.079 E140.67032
M204 S3000
G0 F6900 X11.651 Y23.531
M204 S1250
G1 F1380 X43.451 Y55.331 E142.1661
M204 S3000
G0 F6900 X43.003 Y55.448
M204 S1250
G1 F1380 X11.43 Y23.875 E143.65119
M204 S3000
G0 F6900 X11.209 Y24.219
M204 S1250
G1 F1380 X42.555 Y55.565 E145.12561
M204 S3000
G0 F6900 X42.106 Y55.683
M204 S1250
G1 F1380 X10.987 Y24.563 E146.58938
M204 S3000
G0 F6900 X10.765 Y24.907
M204 S1250
G1 F1380 X41.658 Y55.8 E148.04249
M204 S3000
G0 F6900 X41.268 Y55.976
M204 S1250
G1 F1380 X10.544 Y25.252 E149.48765
M204 S3000
G0 F6900 X10.34 Y25.613
M204 S1250
G1 F1380 X40.908 Y56.181 E150.92548
M204 S3000
G0 F6900 X40.546 Y56.386
M204 S1250
G1 F1380 X10.171 Y26.01 E152.35425
M204 S3000
G0 F6900 X10.004 Y26.409
M204 S1250
G1 F1380 X40.186 Y56.591 E153.77392
M204 S3000
G0 F6900 X39.825 Y56.796
M204 S1250
G1 F1380 X9.835 Y26.806 E155.18456
M204 S3000
G0 F6900 X9.667 Y27.203
M204 S1250
G1 F1380 X39.464 Y57 E156.58612
M204 S3000
G0 F6900 X39.103 Y57.205
M204 S1250
G1 F1380 X9.499 Y27.601 E157.9786
M204 S3000
G0 F6900 X9.331 Y27.999
M204 S1250
G1 F1380 X38.743 Y57.41 E159.36202
M204 S3000
G0 F6900 X38.382 Y57.615
M204 S1250
G1 F1380 X9.163 Y28.396 E160.7364
M204 S3000
G0 F6900 X8.995 Y28.794
M204 S1250
G1 F1380 X37.736 Y57.535 E162.08828
M204 S3000
G0 F6900 X37.083 Y57.448
M204 S1250
G1 F1380 X8.826 Y29.191 E163.41741
M204 S3000
G0 F6900 X8.659 Y29.589
M204 S1250
