;FLAVOR:Marlin
;TIME:9892
;Filament used: 7.71751m
;Layer height: 0.15
;MINX:0.354
;MINY:95.2
;MINZ:0.2
;MAXX:19.954
;MAXY:114.8
;MAXZ:123.2
;MKSPREVIEWPROCESSED
; Postprocessed by [MKS WiFi plugin](https://github.com/Jeredian/mks-wifi-plugin)
; simage=0
; gimage=0
;LINEARADVANCEPROCESSED
;Generated with Cura_SteamEngine 4.13.0
M140 S70
M105
M190 S70
M104 S235
M105
M109 S235
M82 ;absolute extrusion mode
M220 S100 ;reset feedrate
M221 S100 ;reset flowrate
G90 ;use absolute coordinates
M82 ;absolute extrusion mode
G28 ;home
G1 Z2 F1500 ;raise z
G92 E0 ;reset extruder

;G1 X75 Y5 F5000 ;start position
;G1 Z0.28 F1500 ;lower z
G1 E4 F500 ;prime the filament
;G1 X180 E10 F500 ;1st line
;G1 Y5.4 F5000
;G1 X75 E20 F500 ;2nd line
;G1 Z2 F1500 ;raise z
G92 E0 ;reset extruder
M900 K0.15
M900 W0.4 H0.15 D1.75
;end of start g-code
G92 E0
G92 E0
G1 F1680 E-3.75
;LAYER_COUNT:821
M900 K0.150000 T0 ;added by LinearAdvanceSettingPlugin
;LAYER:0
M107
M204 S3000
M205 X15 Y15
;MESH:xyzCalibration_cube.stl
G0 F6900 X19.154 Y114 Z0.2
M204 S1250
;TYPE:WALL-INNER
G1 F1680 E0
G1 F1380 X1.154 Y114 E0.59868
G1 X1.154 Y96 E1.19736
G1 X19.154 Y96 E1.79605
G1 X19.154 Y114 E2.39473
M204 S3000
G0 F6900 X19.554 Y114.4
M204 S1250
G1 F1380 X0.754 Y114.4 E3.02002
G1 X0.754 Y95.6 E3.64531
G1 X19.554 Y95.6 E4.2706
G1 X19.554 Y114.4 E4.89589
M204 S3000
G0 F6900 X19.954 Y114.8
M204 S1250
;TYPE:WALL-OUTER
G1 F1380 X0.354 Y114.8 E5.54779
G1 X0.354 Y95.2 E6.19969
G1 X19.954 Y95.2 E6.85159
G1 X19.954 Y114.8 E7.50349
M204 S3000
G0 F6900 X19.684 Y114.53
G0 X19.044 Y113.61
G0 X18.764 Y113.61
M204 S1250
;TYPE:SKIN
G1 F1380 X1.544 Y113.61 E8.07623
G1 X1.544 Y96.39 E8.64897
G1 X18.764 Y96.39 E9.22171
G1 X18.764 Y113.61 E9.79444
M204 S3000
G0 F6900 X19.044 Y113.61
G0 X19.044 Y96.668
G0 X18.603 Y96.668
M204 S1250
G1 F1380 X18.485 Y96.549 E9.80002
M204 S3000
G0 F6900 X17.919 Y96.549
M204 S1250
G1 F1380 X18.603 Y97.234 E9.83222
M204 S3000
G0 F6900 X18.603 Y97.799
M204 S1250
G1 F1380 X17.353 Y96.549 E9.89101
M204 S3000
G0 F6900 X16.788 Y96.549
M204 S1250
G1 F1380 X18.603 Y98.365 E9.97641
M204 S3000
G0 F6900 X18.603 Y98.931
M204 S1250
G1 F1380 X16.222 Y96.549 E10.08843
M204 S3000
G0 F6900 X15.656 Y96.549
M204 S1250
G1 F1380 X18.603 Y99.496 E10.22704
M204 S3000
G0 F6900 X18.603 Y100.062
M204 S1250
G1 F1380 X15.091 Y96.549 E10.39226
M204 S3000
G0 F6900 X14.525 Y96.549
M204 S1250
G1 F1380 X18.603 Y100.628 E10.5841
M204 S3000
G0 F6900 X18.603 Y101.194
M204 S1250
G1 F1380 X13.959 Y96.549 E10.80256
M204 S3000
G0 F6900 X13.394 Y96.549
M204 S1250
G1 F1380 X18.603 Y101.759 E11.0476
M204 S3000
G0 F6900 X18.603 Y102.325
M204 S1250
G1 F1380 X12.828 Y96.549 E11.31926
M204 S3000
G0 F6900 X12.262 Y96.549
M204 S1250
G1 F1380 X18.603 Y102.891 E11.61755
M204 S3000
G0 F6900 X18.603 Y103.456
M204 S1250
G1 F1380 X11.696 Y96.549 E11.94243
M204 S3000
G0 F6900 X11.131 Y96.549
M204 S1250
G1 F1380 X18.603 Y104.022 E12.29392
M204 S3000
G0 F6900 X18.603 Y104.588
M204 S1250
G1 F1380 X10.565 Y96.549 E12.67202
M204 S3000
G0 F6900 X9.999 Y96.549
M204 S1250
G1 F1380 X18.603 Y105.153 E13.07673
M204 S3000
G0 F6900 X18.603 Y105.719
M204 S1250
G1 F1380 X9.434 Y96.549 E13.50803
M204 S3000
G0 F6900 X8.868 Y96.549
M204 S1250
G1 F1380 X18.603 Y106.285 E13.96596
M204 S3000
G0 F6900 X18.603 Y106.85
M204 S1250
G1 F1380 X8.302 Y96.549 E14.45049
M204 S3000
G0 F6900 X7.737 Y96.549
M204 S1250
G1 F1380 X18.603 Y107.416 E14.96162
M204 S3000
G0 F6900 X18.603 Y107.982
M204 S1250
G1 F1380 X7.171 Y96.549 E15.49937
M204 S3000
G0 F6900 X6.605 Y96.549
M204 S1250
G1 F1380 X18.603 Y108.547 E16.06372
M204 S3000
G0 F6900 X18.603 Y109.113
M204 S1250
G1 F1380 X6.04 Y96.549 E16.65466
M204 S3000
G0 F6900 X5.474 Y96.549
M204 S1250
G1 F1380 X18.603 Y109.679 E17.27224
M204 S3000
G0 F6900 X18.603 Y110.245
M204 S1250
G1 F1380 X4.908 Y96.549 E17.91643
M204 S3000
G0 F6900 X4.343 Y96.549
M204 S1250
G1 F1380 X18.603 Y110.81 E18.5872
M204 S3000
G0 F6900 X18.603 Y111.376
M204 S1250
G1 F1380 X3.777 Y96.549 E19.28459
M204 S3000
G0 F6900 X3.211 Y96.549
M204 S1250
G1 F1380 X18.603 Y111.942 E20.00861
M204 S3000
G0 F6900 X18.603 Y112.507
M204 S1250
G1 F1380 X2.645 Y96.549 E20.75922
M204 S3000
G0 F6900 X2.08 Y96.549
M204 S1250
G1 F1380 X18.603 Y113.073 E21.53644
M204 S3000
G0 F6900 X18.414 Y113.449
M204 S1250
G1 F1380 X1.704 Y96.739 E22.32243
M204 S3000
G0 F6900 X1.704 Y97.304
M204 S1250
G1 F1380 X17.848 Y113.449 E23.08181
M204 S3000
G0 F6900 X17.283 Y113.449
M204 S1250
G1 F1380 X1.704 Y97.87 E23.8146
M204 S3000
G0 F6900 X1.704 Y98.436
M204 S1250
G1 F1380 X16.717 Y113.449 E24.52077
M204 S3000
G0 F6900 X16.151 Y113.449
M204 S1250
G1 F1380 X1.704 Y99.002 E25.20031
M204 S3000
G0 F6900 X1.704 Y99.567
M204 S1250
G1 F1380 X15.586 Y113.449 E25.85328
M204 S3000
G0 F6900 X15.02 Y113.449
M204 S1250
G1 F1380 X1.704 Y100.133 E26.47962
M204 S3000
G0 F6900 X1.704 Y100.699
M204 S1250
G1 F1380 X14.454 Y113.449 E27.07934
M204 S3000
G0 F6900 X13.888 Y113.449
M204 S1250
G1 F1380 X1.704 Y101.264 E27.65246
M204 S3000
G0 F6900 X1.704 Y101.83
M204 S1250
G1 F1380 X13.323 Y113.449 E28.19899
M204 S3000
G0 F6900 X12.757 Y113.449
M204 S1250
G1 F1380 X1.704 Y102.396 E28.71888
M204 S3000
G0 F6900 X1.704 Y102.961
M204 S1250
G1 F1380 X12.191 Y113.449 E29.21218
M204 S3000
G0 F6900 X11.626 Y113.449
M204 S1250
G1 F1380 X1.704 Y103.527 E29.67889
M204 S3000
G0 F6900 X1.704 Y104.093
M204 S1250
G1 F1380 X11.06 Y113.449 E30.11896
M204 S3000
G0 F6900 X10.494 Y113.449
M204 S1250
G1 F1380 X1.704 Y104.658 E30.53244
M204 S3000
G0 F6900 X1.704 Y105.224
M204 S1250
G1 F1380 X9.929 Y113.449 E30.91932
M204 S3000
G0 F6900 X9.363 Y113.449
M204 S1250
G1 F1380 X1.704 Y105.79 E31.27958
M204 S3000
G0 F6900 X1.704 Y106.355
M204 S1250
G1 F1380 X8.797 Y113.449 E31.61323
M204 S3000
G0 F6900 X8.232 Y113.449
M204 S1250
G1 F1380 X1.704 Y106.921 E31.92029
M204 S3000
G0 F6900 X1.704 Y107.487
M204 S1250
G1 F1380 X7.666 Y113.449 E32.20072
M204 S3000
G0 F6900 X7.1 Y113.449
M204 S1250
G1 F1380 X1.704 Y108.052 E32.45456
M204 S3000
G0 F6900 X1.704 Y108.618
M204 S1250
G1 F1380 X6.535 Y113.449 E32.68179
M204 S3000
G0 F6900 X5.969 Y113.449
M204 S1250
G1 F1380 X1.704 Y109.184 E32.88241
M204 S3000
G0 F6900 X1.704 Y109.75
M204 S1250
G1 F1380 X5.403 Y113.449 E33.0564
M204 S3000
G0 F6900 X4.838 Y113.449
M204 S1250
G1 F1380 X1.704 Y110.315 E33.20381
M204 S3000
G0 F6900 X1.704 Y110.881
M204 S1250
G1 F1380 X4.272 Y113.449 E33.3246
M204 S3000
G0 F6900 X3.706 Y113.449
M204 S1250
G1 F1380 X1.704 Y111.447 E33.41877
M204 S3000
G0 F6900 X1.704 Y112.012
M204 S1250
G1 F1380 X3.14 Y113.449 E33.48634
M204 S3000
G0 F6900 X2.575 Y113.449
M204 S1250
G1 F1380 X1.704 Y112.578 E33.52731
M204 S3000
G0 F6900 X1.704 Y113.144
M204 S1250
G1 F1380 X2.009 Y113.449 E33.54165
M204 S3000
G0 F6900 X2.009 Y114.19
;MESH:NONMESH
G0 F300 X2.009 Y114.19 Z0.35
G0 F6900 X19.154 Y114
;TIME_ELAPSED:49.616741
;LAYER:1
M106 S85
M204 S1125
;TYPE:WALL-INNER
;MESH:xyzCalibration_cube.stl
G1 F2940 X1.154 Y114 E33.99066
G1 X1.154 Y96 E34.43968
G1 X19.154 Y96 E34.88869
G1 X19.154 Y114 E35.3377
M204 S3000
G0 F6450 X19.554 Y114.4
M204 S1125
G1 F2940 X0.754 Y114.4 E35.80667
G1 X0.754 Y95.6 E36.27564
G1 X19.554 Y95.6 E36.7446
G1 X19.554 Y114.4 E37.21357
M204 S3000
G0 F6450 X19.954 Y114.8
M204 S1125
;TYPE:WALL-OUTER
G1 F2490 X0.354 Y114.8 E37.7025
G1 X0.354 Y95.2 E38.19142
G1 X19.954 Y95.2 E38.68034
G1 X19.954 Y114.8 E39.16927
M204 S3000
G0 F6450 X19.684 Y114.53
G0 X19.044 Y113.61
G0 X18.764 Y113.61
M204 S1250
;TYPE:SKIN
G1 F1590 X1.544 Y113.61 E39.59882
G1 X1.544 Y96.39 E40.02838
G1 X18.764 Y96.39 E40.45793
G1 X18.764 Y113.61 E40.88749
M204 S3000
G0 F6450 X18.355 Y113.449
M204 S1250
G1 F1590 X18.603 Y113.2 E40.89625
M204 S3000
G0 F6450 X18.603 Y112.635
M204 S1250
G1 F1590 X17.789 Y113.449 E40.92497
M204 S3000
G0 F6450 X17.223 Y113.449
M204 S1250
G1 F1590 X18.603 Y112.069 E40.97365
M204 S3000
G0 F6450 X18.603 Y111.503
M204 S1250
G1 F1590 X16.658 Y113.449 E41.04228
M204 S3000
G0 F6450 X16.092 Y113.449
M204 S1250
G1 F1590 X18.603 Y110.937 E41.13088
M204 S3000
G0 F6450 X18.603 Y110.372
M204 S1250
G1 F1590 X15.526 Y113.449 E41.23943
M204 S3000
G0 F6450 X14.96 Y113.449
M204 S1250
G1 F1590 X18.603 Y109.806 E41.36795
M204 S3000
G0 F6450 X18.603 Y109.24
M204 S1250
G1 F1590 X14.395 Y113.449 E41.51642
M204 S3000
G0 F6450 X13.829 Y113.449
M204 S1250
G1 F1590 X18.603 Y108.675 E41.68483
M204 S3000
G0 F6450 X18.603 Y108.109
M204 S1250
G1 F1590 X13.263 Y113.449 E41.87322
M204 S3000
G0 F6450 X12.698 Y113.449
M204 S1250
G1 F1590 X18.603 Y107.543 E42.08155
M204 S3000
G0 F6450 X18.603 Y106.978
M204 S1250
G1 F1590 X12.132 Y113.449 E42.30983
M204 S3000
G0 F6450 X11.566 Y113.449
M204 S1250
G1 F1590 X18.603 Y106.412 E42.55808
M204 S3000
G0 F6450 X18.603 Y105.846
M204 S1250
G1 F1590 X11.001 Y113.449 E42.82628
M204 S3000
G0 F6450 X10.435 Y113.449
M204 S1250
G1 F1590 X18.603 Y105.281 E43.11443
M204 S3000
G0 F6450 X18.603 Y104.715
M204 S1250
G1 F1590 X9.869 Y113.449 E43.42254
M204 S3000
G0 F6450 X9.304 Y113.449
M204 S1250
G1 F1590 X18.603 Y104.149 E43.75061
M204 S3000
G0 F6450 X18.603 Y103.584
M204 S1250
G1 F1590 X8.738 Y113.449 E44.09862
M204 S3000
G0 F6450 X8.172 Y113.449
M204 S1250
G1 F1590 X18.603 Y103.018 E44.4666
M204 S3000
G0 F6450 X18.603 Y102.452
M204 S1250
G1 F1590 X7.607 Y113.449 E44.85453
M204 S3000
G0 F6450 X7.041 Y113.449
M204 S1250
G1 F1590 X18.603 Y101.887 E45.26241
M204 S3000
G0 F6450 X18.603 Y101.321
M204 S1250
G1 F1590 X6.475 Y113.449 E45.69026
M204 S3000
G0 F6450 X5.909 Y113.449
M204 S1250
G1 F1590 X18.603 Y100.755 E46.13808
M204 S3000
G0 F6450 X18.603 Y100.189
M204 S1250
G1 F1590 X5.344 Y113.449 E46.60584
M204 S3000
G0 F6450 X4.778 Y113.449
M204 S1250
G1 F1590 X18.603 Y99.624 E47.09356
M204 S3000
G0 F6450 X18.603 Y99.058
M204 S1250
G1 F1590 X4.212 Y113.449 E47.60124
M204 S3000
G0 F6450 X3.647 Y113.449
M204 S1250
G1 F1590 X18.603 Y98.492 E48.12887
M204 S3000
G0 F6450 X18.603 Y97.927
M204 S1250
G1 F1590 X3.081 Y113.449 E48.67645
M204 S3000
G0 F6450 X2.515 Y113.449
M204 S1250
G1 F1590 X18.603 Y97.361 E49.244
M204 S3000
G0 F6450 X18.603 Y96.795
M204 S1250
G1 F1590 X1.95 Y113.449 E49.83149
M204 S3000
G0 F6450 X1.704 Y113.13
M204 S1250
G1 F1590 X18.284 Y96.549 E50.41642
M204 S3000
G0 F6450 X17.718 Y96.549
M204 S1250
G1 F1590 X1.704 Y112.564 E50.98137
M204 S3000
G0 F6450 X1.704 Y111.998
M204 S1250
G1 F1590 X17.152 Y96.549 E51.52636
M204 S3000
G0 F6450 X16.587 Y96.549
M204 S1250
G1 F1590 X1.704 Y111.432 E52.0514
M204 S3000
G0 F6450 X1.704 Y110.867
M204 S1250
G1 F1590 X16.021 Y96.549 E52.55648
M204 S3000
G0 F6450 X15.455 Y96.549
M204 S1250
G1 F1590 X1.704 Y110.301 E53.04161
M204 S3000
G0 F6450 X1.704 Y109.735
M204 S1250
G1 F1590 X14.89 Y96.549 E53.50678
M204 S3000
G0 F6450 X14.324 Y96.549
M204 S1250
G1 F1590 X1.704 Y109.17 E53.952
M204 S3000
G0 F6450 X1.704 Y108.604
M204 S1250
G1 F1590 X13.758 Y96.549 E54.37726
M204 S3000
G0 F6450 X13.193 Y96.549
M204 S1250
G1 F1590 X1.704 Y108.038 E54.78256
M204 S3000
G0 F6450 X1.704 Y107.473
M204 S1250
G1 F1590 X12.627 Y96.549 E55.16792
M204 S3000
G0 F6450 X12.061 Y96.549
M204 S1250
G1 F1590 X1.704 Y106.907 E55.53331
M204 S3000
G0 F6450 X1.704 Y106.341
M204 S1250
G1 F1590 X11.496 Y96.549 E55.87874
M204 S3000
G0 F6450 X10.93 Y96.549
M204 S1250
G1 F1590 X1.704 Y105.776 E56.20423
M204 S3000
G0 F6450 X1.704 Y105.21
M204 S1250
G1 F1590 X10.364 Y96.549 E56.50976
M204 S3000
G0 F6450 X9.799 Y96.549
M204 S1250
G1 F1590 X1.704 Y104.644 E56.79533
M204 S3000
G0 F6450 X1.704 Y104.079
M204 S1250
G1 F1590 X9.233 Y96.549 E57.06095
M204 S3000
G0 F6450 X8.667 Y96.549
M204 S1250
G1 F1590 X1.704 Y103.513 E57.30661
M204 S3000
G0 F6450 X1.704 Y102.947
M204 S1250
G1 F1590 X8.102 Y96.549 E57.53232
M204 S3000
G0 F6450 X7.536 Y96.549
M204 S1250
G1 F1590 X1.704 Y102.381 E57.73806
M204 S3000
G0 F6450 X1.704 Y101.816
M204 S1250
G1 F1590 X6.97 Y96.549 E57.92385
M204 S3000
G0 F6450 X6.404 Y96.549
M204 S1250
G1 F1590 X1.704 Y101.25 E58.08967
M204 S3000
G0 F6450 X1.704 Y100.684
M204 S1250
G1 F1590 X5.839 Y96.549 E58.23554
M204 S3000
G0 F6450 X5.273 Y96.549
M204 S1250
G1 F1590 X1.704 Y100.119 E58.36147
M204 S3000
G0 F6450 X1.704 Y99.553
M204 S1250
G1 F1590 X4.707 Y96.549 E58.46742
M204 S3000
G0 F6450 X4.142 Y96.549
M204 S1250
G1 F1590 X1.704 Y98.987 E58.55343
M204 S3000
G0 F6450 X1.704 Y98.422
M204 S1250
G1 F1590 X3.576 Y96.549 E58.61949
M204 S3000
G0 F6450 X3.01 Y96.549
M204 S1250
G1 F1590 X1.704 Y97.856 E58.66558
M204 S3000
G0 F6450 X1.704 Y97.29
M204 S1250
G1 F1590 X2.445 Y96.549 E58.69172
M204 S3000
G0 F6450 X1.879 Y96.549
M204 S1250
G1 F1590 X1.704 Y96.725 E58.69791
M204 S3000
G0 F6450 X0.964 Y96.725
G1 F1680 E54.94791
;MESH:NONMESH
G0 F300 X0.964 Y96.725 Z0.5
G0 F6450 X1.336 Y113.818
G0 X19.154 Y114
;TIME_ELAPSED:87.893450
;LAYER:2
M106 S170
M204 S1000
;TYPE:WALL-INNER
;MESH:xyzCalibration_cube.stl
G1 F1680 E58.69791
G1 F4500 X1.154 Y114 E59.14692
G1 X1.154 Y96 E59.59593
G1 X19.154 Y96 E60.04494
G1 X19.154 Y114 E60.49396
M204 S3000
G0 F6000 X19.554 Y114.4
M204 S1000
G1 F4500 X0.754 Y114.4 E60.96292
G1 X0.754 Y95.6 E61.43189
G1 X19.554 Y95.6 E61.90086
G1 X19.554 Y114.4 E62.36983
M204 S3000
G0 F6000 X19.954 Y114.8
M204 S1000
;TYPE:WALL-OUTER
G1 F3600 X0.354 Y114.8 E62.85875
G1 X0.354 Y95.2 E63.34768
G1 X19.954 Y95.2 E63.8366
G1 X19.954 Y114.8 E64.32552
M204 S3000
G0 F6000 X19.684 Y114.53
G0 X19.044 Y113.61
G0 X18.764 Y113.61
M204 S1250
;TYPE:SKIN
G1 F1800 X1.544 Y113.61 E64.75508
G1 X1.544 Y96.39 E65.18463
G1 X18.764 Y96.39 E65.61419
G1 X18.764 Y113.61 E66.04374
M204 S3000
G0 F6000 X19.044 Y113.61
G0 X19.044 Y96.668
G0 X18.603 Y96.668
M204 S1250
G1 F1800 X18.485 Y96.549 E66.04792
M204 S3000
G0 F6000 X17.919 Y96.549
M204 S1250
G1 F1800 X18.603 Y97.234 E66.07207
M204 S3000
G0 F6000 X18.603 Y97.799
M204 S1250
G1 F1800 X17.353 Y96.549 E66.11617
M204 S3000
G0 F6000 X16.788 Y96.549
M204 S1250
G1 F1800 X18.603 Y98.365 E66.18021
M204 S3000
G0 F6000 X18.603 Y98.931
M204 S1250
G1 F1800 X16.222 Y96.549 E66.26423
M204 S3000
G0 F6000 X15.656 Y96.549
M204 S1250
G1 F1800 X18.603 Y99.496 E66.36819
M204 S3000
G0 F6000 X18.603 Y100.062
M204 S1250
G1 F1800 X15.091 Y96.549 E66.4921
M204 S3000
G0 F6000 X14.525 Y96.549
M204 S1250
G1 F1800 X18.603 Y100.628 E66.63598
M204 S3000
G0 F6000 X18.603 Y101.194
M204 S1250
G1 F1800 X13.959 Y96.549 E66.79983
M204 S3000
G0 F6000 X13.394 Y96.549
M204 S1250
G1 F1800 X18.603 Y101.759 E66.98361
M204 S3000
G0 F6000 X18.603 Y102.325
M204 S1250
G1 F1800 X12.828 Y96.549 E67.18736
M204 S3000
G0 F6000 X12.262 Y96.549
M204 S1250
G1 F1800 X18.603 Y102.891 E67.41107
M204 S3000
G0 F6000 X18.603 Y103.456
M204 S1250
G1 F1800 X11.696 Y96.549 E67.65473
M204 S3000
G0 F6000 X11.131 Y96.549
M204 S1250
G1 F1800 X18.603 Y104.022 E67.91835
M204 S3000
G0 F6000 X18.603 Y104.588
M204 S1250
G1 F1800 X10.565 Y96.549 E68.20193
M204 S3000
G0 F6000 X9.999 Y96.549
M204 S1250
G1 F1800 X18.603 Y105.153 E68.50546
M204 S3000
G0 F6000 X18.603 Y105.719
M204 S1250
G1 F1800 X9.434 Y96.549 E68.82893
M204 S3000
G0 F6000 X8.868 Y96.549
M204 S1250
G1 F1800 X18.603 Y106.285 E69.17238
M204 S3000
G0 F6000 X18.603 Y106.85
M204 S1250
G1 F1800 X8.302 Y96.549 E69.53578
M204 S3000
G0 F6000 X7.737 Y96.549
M204 S1250
G1 F1800 X18.603 Y107.416 E69.91912
M204 S3000
G0 F6000 X18.603 Y107.982
M204 S1250
G1 F1800 X7.171 Y96.549 E70.32243
M204 S3000
G0 F6000 X6.605 Y96.549
M204 S1250
G1 F1800 X18.603 Y108.547 E70.7457
M204 S3000
G0 F6000 X18.603 Y109.113
M204 S1250
