;FLAVOR:Marlin
;TIME:7061
;Filament used: 7.01202m
;Layer height: 0.15
;MINX:105.795
;MINY:75.515
;MINZ:0.15
;MAXX:153.892
;MAXY:128.496
;MAXZ:58.95
;MKSPREVIEWPROCESSED
; Postprocessed by [MKS WiFi plugin](https://github.com/Jeredian/mks-wifi-plugin)
; simage=0
; gimage=0
;LINEARADVANCEPROCESSED
;Generated with Cura_SteamEngine 4.13.0
M140 S65
M105
M190 S65
M104 S225
M105
M109 S225
M82 ;absolute extrusion mode
M220 S100 ;reset feedrate
M221 S100 ;reset flowrate
G90 ;use absolute coordinates
M82 ;absolute extrusion mode
G28 ;home
G1 Z2 F1500 ;raise z
G92 E0 ;reset extruder

G1 X75 Y5 F5000 ;start position
G1 Z0.28 F1500 ;lower z
G1 E4 F500 ;prime the filament
G1 X180 E10 F500 ;1st line
G1 Y5.4 F5000
G1 X75 E20 F500 ;2nd line
G1 Z2 F1500 ;raise z
G92 E0 ;reset extruder
M900 K0.8
M900 W0.4 H0.15 D1.75
;end of start g-code
G92 E0
G92 E0
G1 F2400 E-10
;LAYER_COUNT:393
M900 K0.800000 T0 ;added by LinearAdvanceSettingPlugin
;LAYER:0
M107
M204 S3000
M205 X15 Y15
G0 F9000 X108.183 Y81.925 Z0.15
M204 S1500
;TYPE:SKIRT
G1 F2400 E0
G1 F1800 X109.089 Y80.902 E0.04261
G1 X109.149 Y80.842 E0.04526
G1 X109.847 Y80.2 E0.07483
G1 X110.293 Y79.843 E0.09264
G1 X111.146 Y79.195 E0.12604
G1 X111.368 Y79.031 E0.13465
G1 X112.919 Y77.861 E0.19523
G1 X113.699 Y77.322 E0.22479
G1 X114.522 Y76.851 E0.25436
G1 X115.382 Y76.45 E0.28395
G1 X116.273 Y76.124 E0.31353
G1 X117.188 Y75.874 E0.34311
G1 X118.121 Y75.702 E0.37269
G1 X119.064 Y75.609 E0.40224
G1 X120.013 Y75.595 E0.43183
G1 X120.568 Y75.625 E0.44916
G1 X121.492 Y75.698 E0.47806
G1 X122.592 Y75.799 E0.51251
G1 X125.074 Y75.956 E0.59005
G1 X127.583 Y76.044 E0.66834
G1 X130.132 Y76.061 E0.74782
G1 X132.599 Y76.009 E0.82476
G1 X135.107 Y75.884 E0.90306
G1 X137.661 Y75.683 E0.98294
G1 X138.108 Y75.638 E0.99695
G1 X138.982 Y75.56 E1.02431
G1 X139.929 Y75.515 E1.05388
G1 X140.877 Y75.551 E1.08346
G1 X141.819 Y75.666 E1.11305
G1 X142.747 Y75.86 E1.14261
G1 X143.656 Y76.132 E1.1722
G1 X144.538 Y76.479 E1.20175
G1 X145.389 Y76.899 E1.23134
G1 X146.2 Y77.39 E1.2609
G1 X146.715 Y77.753 E1.28055
G1 X148.404 Y79.015 E1.34629
G1 X149.267 Y79.651 E1.37972
G1 X150.006 Y80.245 E1.40928
G1 X150.693 Y80.9 E1.43888
G1 X151.213 Y81.478 E1.46312
G1 X151.265 Y81.54 E1.46565
G1 X151.843 Y82.291 E1.4952
G1 X152.356 Y83.089 E1.52478
G1 X152.8 Y83.927 E1.55435
G1 X153.172 Y84.8 E1.58394
G1 X153.469 Y85.701 E1.61352
G1 X153.688 Y86.623 E1.64307
G1 X153.83 Y87.561 E1.67265
G1 X153.892 Y88.508 E1.70224
G1 X153.874 Y89.456 E1.73181
G1 X153.776 Y90.399 E1.76137
G1 X153.599 Y91.331 E1.79095
G1 X153.345 Y92.245 E1.82053
G1 X153.014 Y93.134 E1.85011
G1 X152.634 Y93.945 E1.87804
G1 X152.577 Y94.055 E1.8819
G1 X152.385 Y94.41 E1.89448
G1 X152.141 Y94.84 E1.9099
G1 X151.185 Y96.494 E1.96947
G1 X149.924 Y98.751 E2.05008
G1 X148.76 Y100.979 E2.12847
G1 X147.662 Y103.23 E2.20656
G1 X146.611 Y105.553 E2.28606
G1 X145.639 Y107.869 E2.36438
G1 X144.757 Y110.159 E2.4409
G1 X143.906 Y112.563 E2.52042
G1 X143.143 Y114.928 E2.5979
G1 X142.431 Y117.37 E2.67722
G1 X141.886 Y119.441 E2.744
G1 X141.76 Y119.948 E2.76029
G1 X141.493 Y120.858 E2.78986
G1 X141.15 Y121.743 E2.81945
G1 X140.733 Y122.595 E2.84903
G1 X140.246 Y123.409 E2.87861
G1 X139.693 Y124.179 E2.90817
G1 X139.076 Y124.9 E2.93776
G1 X138.401 Y125.566 E2.96733
G1 X137.672 Y126.173 E2.9969
G1 X136.895 Y126.716 E3.02646
G1 X136.075 Y127.193 E3.05604
G1 X135.217 Y127.598 E3.08563
G1 X134.329 Y127.929 E3.11518
G1 X133.415 Y128.185 E3.14477
G1 X132.483 Y128.363 E3.17436
G1 X131.424 Y128.468 E3.20754
G1 X131.25 Y128.477 E3.21298
G1 X130.701 Y128.492 E3.2301
G1 X129.313 Y128.496 E3.27338
G1 X128.931 Y128.491 E3.28529
G1 X128.706 Y128.484 E3.29231
G1 X127.76 Y128.414 E3.32189
G1 X126.824 Y128.265 E3.35144
G1 X125.903 Y128.038 E3.38102
G1 X125.004 Y127.734 E3.41061
G1 X124.135 Y127.355 E3.44017
G1 X123.3 Y126.905 E3.46975
G1 X122.506 Y126.386 E3.49933
G1 X121.759 Y125.802 E3.52889
G1 X121.064 Y125.156 E3.55848
G1 X120.425 Y124.455 E3.58806
G1 X119.848 Y123.702 E3.61764
G1 X119.336 Y122.904 E3.6472
G1 X118.894 Y122.065 E3.67677
G1 X118.523 Y121.192 E3.70635
G1 X118.206 Y120.212 E3.73847
G1 X117.966 Y119.332 E3.76691
G1 X117.672 Y118.197 E3.80347
G1 X116.971 Y115.78 E3.88194
G1 X116.19 Y113.342 E3.96176
G1 X115.375 Y111.034 E4.03809
G1 X114.476 Y108.697 E4.11616
G1 X113.501 Y106.358 E4.19518
G1 X112.461 Y104.051 E4.27408
G1 X111.372 Y101.807 E4.35186
G1 X110.218 Y99.593 E4.42971
G1 X109.083 Y97.549 E4.50261
G1 X108.543 Y96.617 E4.5362
G1 X107.608 Y95.023 E4.59382
G1 X107.263 Y94.416 E4.61559
G1 X106.83 Y93.572 E4.64517
G1 X106.469 Y92.695 E4.67474
G1 X106.183 Y91.791 E4.70431
G1 X105.975 Y90.866 E4.73387
G1 X105.845 Y89.926 E4.76346
G1 X105.795 Y88.979 E4.79303
G1 X105.824 Y88.031 E4.8226
G1 X105.934 Y87.089 E4.85218
G1 X106.122 Y86.159 E4.88176
G1 X106.388 Y85.249 E4.91132
G1 X106.73 Y84.364 E4.94091
G1 X107.145 Y83.511 E4.97049
G1 X107.631 Y82.696 E5.00008
G1 X108.183 Y81.925 E5.02964
M204 S3000
G0 F9000 X108.76 Y82.006
M204 S1500
G1 F1800 X109.443 Y81.256 E5.06127
G1 X109.503 Y81.196 E5.06392
G1 X110.186 Y80.569 E5.09283
G1 X110.596 Y80.241 E5.1092
G1 X111.443 Y79.597 E5.14238
G1 X111.665 Y79.433 E5.15098
G1 X113.22 Y78.26 E5.21172
G1 X113.983 Y77.734 E5.24062
G1 X114.789 Y77.276 E5.26952
G1 X115.632 Y76.888 E5.29846
G1 X116.505 Y76.575 E5.32738
G1 X117.401 Y76.339 E5.35627
G1 X118.314 Y76.18 E5.38517
G1 X119.238 Y76.101 E5.41408
G1 X120.529 Y76.123 E5.45434
G1 X121.446 Y76.196 E5.48303
G1 X122.548 Y76.297 E5.51753
G1 X125.062 Y76.456 E5.59608
G1 X127.562 Y76.544 E5.67408
G1 X130.104 Y76.561 E5.75335
G1 X132.635 Y76.507 E5.83228
G1 X135.171 Y76.381 E5.91146
G1 X137.677 Y76.184 E5.98984
G1 X138.152 Y76.136 E6.00473
G1 X139.026 Y76.058 E6.03209
G1 X139.953 Y76.015 E6.06102
G1 X140.879 Y76.052 E6.08992
G1 X141.799 Y76.17 E6.11884
G1 X142.705 Y76.366 E6.14775
G1 X143.591 Y76.639 E6.17665
G1 X144.45 Y76.987 E6.20555
G1 X145.276 Y77.409 E6.23448
G1 X146.416 Y78.153 E6.27692
G1 X148.108 Y79.417 E6.34278
G1 X148.971 Y80.053 E6.37621
G1 X149.693 Y80.635 E6.40512
G1 X150.362 Y81.277 E6.43403
G1 X150.83 Y81.799 E6.45589
G1 X150.882 Y81.861 E6.45842
G1 X151.446 Y82.596 E6.48731
G1 X151.945 Y83.378 E6.51623
G1 X152.375 Y84.199 E6.54513
G1 X152.733 Y85.054 E6.57403
G1 X153.015 Y85.938 E6.60297
G1 X153.221 Y86.842 E6.63188
G1 X153.348 Y87.76 E6.66077
G1 X153.395 Y88.686 E6.68968
G1 X153.362 Y89.613 E6.71861
G1 X153.249 Y90.533 E6.74751
G1 X153.058 Y91.44 E6.77641
G1 X152.789 Y92.327 E6.80531
G1 X152.445 Y93.188 E6.83422
G1 X152.19 Y93.715 E6.85248
G1 X152.133 Y93.825 E6.85634
G1 X151.949 Y94.164 E6.86837
G1 X151.708 Y94.59 E6.88363
G1 X150.763 Y96.226 E6.94254
G1 X149.485 Y98.512 E7.02421
G1 X148.3 Y100.78 E7.104
G1 X147.204 Y103.028 E7.18198
G1 X146.168 Y105.319 E7.26038
G1 X145.183 Y107.665 E7.33972
G1 X144.27 Y110.037 E7.41897
G1 X143.44 Y112.38 E7.49648
G1 X142.665 Y114.782 E7.57518
G1 X141.953 Y117.225 E7.65452
G1 X141.403 Y119.314 E7.72188
G1 X141.275 Y119.828 E7.7384
G1 X141.013 Y120.717 E7.7673
G1 X140.675 Y121.58 E7.7962
G1 X140.264 Y122.411 E7.8251
G1 X139.782 Y123.204 E7.85404
G1 X139.235 Y123.952 E7.88293
G1 X138.624 Y124.65 E7.91186
G1 X137.956 Y125.293 E7.94077
G1 X137.235 Y125.876 E7.96968
G1 X136.467 Y126.395 E7.99859
G1 X135.657 Y126.845 E8.02748
G1 X134.811 Y127.224 E8.05638
G1 X133.935 Y127.529 E8.08531
G1 X133.036 Y127.757 E8.11423
G1 X132.121 Y127.907 E8.14314
G1 X131.398 Y127.969 E8.16577
G1 X131.224 Y127.978 E8.1712
G1 X130.7 Y127.992 E8.18754
G1 X129.312 Y127.996 E8.23082
G1 X128.947 Y127.991 E8.2422
G1 X128.722 Y127.984 E8.24922
G1 X127.797 Y127.915 E8.27815
G1 X126.882 Y127.767 E8.30705
G1 X125.983 Y127.54 E8.33596
G1 X125.107 Y127.237 E8.36486
G1 X124.26 Y126.86 E8.39377
G1 X123.449 Y126.411 E8.42268
G1 X122.679 Y125.893 E8.45161
G1 X121.957 Y125.312 E8.48051
G1 X121.288 Y124.67 E8.50942
G1 X120.677 Y123.973 E8.53832
G1 X120.128 Y123.226 E8.56723
G1 X119.645 Y122.434 E8.59616
G1 X119.232 Y121.604 E8.62506
G1 X118.893 Y120.742 E8.65395
G1 X118.688 Y120.08 E8.67556
G1 X118.45 Y119.206 E8.7038
G1 X118.155 Y118.069 E8.74043
G1 X117.44 Y115.602 E8.82052
G1 X116.681 Y113.232 E8.89811
G1 X115.83 Y110.824 E8.97775
G1 X114.943 Y108.517 E9.05482
G1 X113.965 Y106.17 E9.1341
G1 X112.926 Y103.866 E9.21291
G1 X111.81 Y101.568 E9.29257
G1 X110.651 Y99.343 E9.3708
G1 X109.519 Y97.304 E9.44352
G1 X108.974 Y96.364 E9.4774
G1 X108.043 Y94.776 E9.53479
G1 X107.698 Y94.169 E9.55656
G1 X107.275 Y93.344 E9.58547
G1 X106.925 Y92.485 E9.6144
G1 X106.65 Y91.6 E9.64329
G1 X106.452 Y90.694 E9.67221
G1 X106.333 Y89.775 E9.70111
G1 X106.294 Y88.848 E9.73004
G1 X106.335 Y87.922 E9.75894
G1 X106.455 Y87.003 E9.78784
G1 X106.654 Y86.097 E9.81676
G1 X106.931 Y85.212 E9.84568
G1 X107.282 Y84.354 E9.87458
G1 X107.707 Y83.53 E9.90349
G1 X108.2 Y82.745 E9.9324
G1 X108.76 Y82.006 E9.96131
M204 S3000
G0 F9000 X108.772 Y82.804
M204 S1500
G1 F1800 X109.339 Y82.098 E9.98954
G1 X109.796 Y81.609 E10.01041
G1 X109.856 Y81.549 E10.01306
G1 X110.524 Y80.938 E10.04129
G1 X110.898 Y80.639 E10.05622
G1 X111.625 Y80.086 E10.0847
G1 X111.879 Y79.898 E10.09455
G1 X113.521 Y78.659 E10.15869
G1 X114.267 Y78.146 E10.18692
G1 X115.056 Y77.701 E10.21517
G1 X115.88 Y77.327 E10.24338
G1 X116.734 Y77.028 E10.2716
G1 X117.612 Y76.805 E10.29985
G1 X118.506 Y76.66 E10.32809
G1 X119.409 Y76.595 E10.35632
G1 X120.49 Y76.622 E10.39003
G1 X121.401 Y76.694 E10.41853
G1 X122.509 Y76.795 E10.45322
G1 X125.011 Y76.954 E10.53139
G1 X127.577 Y77.044 E10.61145
G1 X130.111 Y77.061 E10.69047
G1 X132.67 Y77.007 E10.77028
G1 X135.164 Y76.882 E10.84814
G1 X137.729 Y76.681 E10.92837
G1 X138.197 Y76.634 E10.94304
G1 X139.071 Y76.556 E10.9704
G1 X139.975 Y76.515 E10.99861
G1 X140.88 Y76.554 E11.02686
G1 X141.777 Y76.673 E11.05507
G1 X142.661 Y76.871 E11.08332
G1 X143.523 Y77.146 E11.11153
G1 X144.358 Y77.496 E11.13976
G1 X145.159 Y77.918 E11.168
G1 X146.117 Y78.554 E11.20385
G1 X147.811 Y79.82 E11.26979
G1 X148.674 Y80.456 E11.30322
G1 X149.378 Y81.024 E11.33143
G1 X150.03 Y81.653 E11.35968
G1 X150.446 Y82.12 E11.37918
G1 X150.498 Y82.182 E11.3817
G1 X151.049 Y82.901 E11.40995
G1 X151.534 Y83.665 E11.43816
G1 X151.95 Y84.47 E11.46642
G1 X152.293 Y85.307 E11.49462
G1 X152.561 Y86.172 E11.52286
G1 X152.751 Y87.057 E11.55108
G1 X152.863 Y87.956 E11.57933
G1 X152.895 Y88.86 E11.60754
G1 X152.847 Y89.764 E11.63577
G1 X152.719 Y90.661 E11.66402
G1 X152.513 Y91.542 E11.69223
G1 X152.23 Y92.402 E11.72046
G1 X151.746 Y93.485 E11.75745
G1 X151.689 Y93.595 E11.76131
G1 X151.514 Y93.918 E11.77277
G1 X151.275 Y94.34 E11.78789
G1 X150.31 Y96.01 E11.84803
G1 X149.052 Y98.261 E11.92844
G1 X147.862 Y100.539 E12.00858
G1 X146.754 Y102.812 E12.08742
G1 X145.699 Y105.143 E12.16721
G1 X144.715 Y107.488 E12.2465
G1 X143.81 Y109.837 E12.325
G1 X142.963 Y112.228 E12.40409
G1 X142.187 Y114.636 E12.48298
G1 X141.467 Y117.105 E12.56317
G1 X140.928 Y119.153 E12.62921
G1 X140.79 Y119.707 E12.64701
G1 X140.533 Y120.575 E12.67523
G1 X140.2 Y121.417 E12.70347
G1 X139.794 Y122.226 E12.73169
G1 X139.319 Y122.997 E12.75993
G1 X138.777 Y123.722 E12.78815
G1 X138.174 Y124.397 E12.81638
G1 X137.513 Y125.016 E12.84461
G1 X136.8 Y125.574 E12.87285
G1 X136.041 Y126.067 E12.90107
G1 X135.241 Y126.491 E12.9293
G1 X134.407 Y126.843 E12.95753
G1 X133.545 Y127.12 E12.98576
G1 X132.662 Y127.32 E13.01399
G1 X131.372 Y127.469 E13.05448
G1 X131.198 Y127.478 E13.05991
G1 X130.699 Y127.492 E13.07548
G1 X129.311 Y127.496 E13.11876
G1 X128.962 Y127.491 E13.12964
G1 X128.737 Y127.484 E13.13666
G1 X127.835 Y127.416 E13.16487
G1 X126.941 Y127.268 E13.19312
G1 X126.065 Y127.043 E13.22132
G1 X125.211 Y126.741 E13.24957
G1 X124.388 Y126.364 E13.27779
G1 X123.601 Y125.917 E13.30602
G1 X122.856 Y125.402 E13.33426
G1 X122.16 Y124.823 E13.36249
G1 X121.518 Y124.185 E13.39071
G1 X120.935 Y123.492 E13.41895
G1 X120.414 Y122.751 E13.44719
G1 X119.962 Y121.967 E13.47541
G1 X119.58 Y121.146 E13.50365
G1 X119.17 Y119.947 E13.54316
G1 X118.934 Y119.081 E13.57115
G1 X118.63 Y117.909 E13.6089
G1 X117.926 Y115.48 E13.68776
G1 X117.147 Y113.05 E13.76732
G1 X116.318 Y110.701 E13.845
G1 X115.404 Y108.325 E13.92438
G1 X114.41 Y105.939 E14.00497
G1 X113.378 Y103.651 E14.08324
G1 X112.27 Y101.37 E14.16231
G1 X111.084 Y99.093 E14.24236
G1 X109.964 Y97.076 E14.3143
G1 X109.374 Y96.057 E14.35102
G1 X108.478 Y94.529 E14.40625
G1 X108.133 Y93.922 E14.42802
G1 X107.721 Y93.116 E14.45625
G1 X107.381 Y92.277 E14.48447
G1 X107.117 Y91.411 E14.5127
G1 X106.931 Y90.525 E14.54093
G1 X106.823 Y89.626 E14.56917
G1 X106.795 Y88.721 E14.5974
G1 X106.847 Y87.817 E14.62563
G1 X106.978 Y86.921 E14.65387
G1 X107.188 Y86.041 E14.68208
G1 X107.475 Y85.182 E14.71032
G1 X107.837 Y84.352 E14.73855
G1 X108.27 Y83.557 E14.76678
G1 X108.772 Y82.804 E14.795
M204 S3000
G1 F2400 E4.795
G0 F9000 X129.431 Y89.777
M204 S1500
G1 F2400 E14.795
G1 F1800 X129.828 Y89.471 E14.81063
G1 X129.869 Y89.47 E14.81191
G1 X130.269 Y89.774 E14.82757
G1 X129.849 Y89.838 E14.84082
G1 X129.431 Y89.777 E14.85399
M204 S3000
G0 F9000 X129.216 Y89.312
M204 S1500
G1 F1800 X129.334 Y89.219 E14.85868
G1 X129.638 Y88.988 E14.87058
G1 X129.964 Y88.97 E14.88076
G1 X130.058 Y88.986 E14.88374
G1 X131.514 Y90.091 E14.94073
G1 X129.852 Y90.344 E14.99315
G1 X128.189 Y90.103 E15.04555
G1 X128.549 Y89.826 E15.05971
G1 X128.667 Y89.733 E15.0644
G1 X129.216 Y89.312 E15.08597
M204 S3000
G0 F9000 X129.256 Y88.65
M204 S1500
G1 F1800 X129.433 Y88.516 E15.09289
G1 X129.69 Y88.471 E15.10103
G1 X130.003 Y88.47 E15.11079
G1 X130.263 Y88.513 E15.119
G1 X131.238 Y89.256 E15.15723
G1 X131.907 Y89.762 E15.18338
G1 X132.756 Y90.407 E15.21663
G1 X129.852 Y90.849 E15.30822
G1 X126.948 Y90.428 E15.39972
G1 X129.256 Y88.65 E15.49057
M204 S3000
G1 F2400 E5.49057
;MESH:pikachu_1gen_flowalistik.STL
G0 F9000 X128.716 Y92.37
G0 X129.862 Y93.295
G0 X134.247 Y92.628
G0 X139.222 Y88.924
G0 X140.299 Y88.908
G0 X140.659 Y89.85
G0 X136.113 Y97.724
G0 X130.576 Y101.093
M204 S1500
;TYPE:WALL-INNER
G1 F2400 E15.49057
G1 F1800 X131.253 Y101.746 E15.51403
G1 X130.137 Y114.039 E15.82194
G1 X129.946 Y116.147 E15.87474
G1 X129.74 Y114.041 E15.90124
G1 X128.534 Y101.757 E16.20914
G1 X129.22 Y101.082 E16.23315
G1 X127.894 Y100.363 E16.27078
G1 X123.517 Y97.893 E16.39615
G1 X119.375 Y90.889 E16.59913
G1 X119.313 Y90.766 E16.60256
G1 X118.717 Y89.751 E16.63193
G1 X119.09 Y89.737 E16.64124
G1 X119.242 Y88.802 E16.66487
G1 X120.348 Y88.817 E16.69246
G1 X120.37 Y88.684 E16.69582
G1 X121.065 Y89.257 E16.71829
G1 X121.14 Y89.304 E16.7205
G1 X124.991 Y92.569 E16.84644
G1 X125.469 Y92.486 E16.85854
G1 X129.861 Y93.123 E16.96925
G1 X134.246 Y92.455 E17.07989
G1 X134.731 Y92.534 E17.09215
G1 X138.552 Y89.243 E17.21795
G1 X138.63 Y89.194 E17.22025
G1 X139.32 Y88.616 E17.2427
G1 X139.343 Y88.748 E17.24604
G1 X140.45 Y88.724 E17.27366
G1 X140.612 Y89.659 E17.29733
G1 X140.983 Y89.669 E17.30659
G1 X140.394 Y90.688 E17.33595
G1 X140.338 Y90.8 E17.33907
G1 X136.24 Y97.849 E17.54247
G1 X130.576 Y101.093 E17.70529
M204 S3000
G0 F9000 X131.237 Y101.175
M204 S1500
G1 F1800 X131.668 Y101.591 E17.72023
G1 X130.301 Y116.654 E18.09752
G1 X129.907 Y116.663 E18.10736
G1 X129.594 Y116.658 E18.11516
G1 X128.117 Y101.606 E18.49244
G1 X128.554 Y101.176 E18.50773
G1 X127.703 Y100.715 E18.53188
G1 X123.227 Y98.189 E18.66009
G1 X119.025 Y91.083 E18.86602
G1 X118.962 Y90.958 E18.86951
G1 X118.032 Y89.375 E18.91531
G1 X118.748 Y89.349 E18.93318
G1 X118.903 Y88.397 E18.95724
G1 X120.009 Y88.412 E18.98483
G1 X120.088 Y87.933 E18.99694
G1 X121.299 Y88.932 E19.0361
G1 X121.379 Y88.982 E19.03846
